src/assets/images/geojson-map/fullscreen.svg

<svg xmlns="http://www.w3.org/2000/svg" viewBox="0 0 24 24"><path d="M5 5h5v2H7v3H5zm9 0h5v5h-2V7h-3zm3 9h2v5h-5v-2h3zm-7 3v2H5v-5h2v3z"/></svg>

<svg xmlns="http://www.w3.org/2000/svg" viewBox="0 0 24 24"><path d="M5,5H10V7H7V10H5V5M14,5H19V10H17V7H14V5M17,14H19V19H14V17H17V14M10,17V19H5V14H7V17H10Z" /></svg>
